public/logos/XY.svg

<?xml version="1.0" encoding="UTF-8"?>
<svg xmlns="http://www.w3.org/2000/svg" xmlns:xlink="http://www.w3.org/1999/xlink" width="138.14pt" height="59pt" viewBox="0 0 138.14 59" version="1.1">
<defs>
<clipPath id="clip1">
  <path d="M 116 6 L 138.140625 6 L 138.140625 36 L 116 36 Z M 116 6 "/>
</clipPath>
</defs>
<g id="surface1">
<g clip-path="url(#clip1)" clip-rule="nonzero">
<path style=" stroke:none;fill-rule:nonzero;fill:rgb(24.316406%,71.095276%,65.847778%);fill-opacity:1;" d="M 138.144531 26.730469 L 138.144531 26.804688 C 138.144531 32.082031 134.257812 35.355469 128.003906 35.355469 C 124.28125 35.355469 120.574219 34.179688 117.59375 32.027344 C 116.90625 31.539062 116.492188 30.691406 116.492188 29.804688 C 116.492188 28.269531 117.703125 27.074219 119.257812 27.074219 C 119.890625 27.074219 120.429688 27.257812 120.957031 27.617188 C 123.269531 29.316406 125.617188 30.148438 128.148438 30.148438 C 130.734375 30.148438 132.269531 29.136719 132.269531 27.417969 L 132.269531 27.347656 C 132.269531 25.628906 131.039062 24.851562 126.578125 23.714844 C 121.390625 22.394531 117.414062 20.929688 117.414062 15.292969 L 117.414062 15.21875 C 117.414062 10.320312 121.390625 6.921875 127.082031 6.921875 C 130.355469 6.921875 133.300781 7.753906 135.886719 9.382812 C 136.519531 9.761719 137.1875 10.554688 137.1875 11.730469 C 137.1875 13.265625 135.976562 14.460938 134.421875 14.460938 C 133.878906 14.460938 133.425781 14.332031 132.921875 14.027344 C 130.769531 12.761719 128.835938 12.148438 127.011719 12.148438 C 124.769531 12.148438 123.324219 13.140625 123.324219 14.675781 L 123.324219 14.75 C 123.324219 16.683594 124.625 17.28125 129.414062 18.507812 C 134.636719 19.828125 138.144531 21.761719 138.144531 26.730469 "/>
</g>
<path style=" stroke:none;fill-rule:nonzero;fill:rgb(24.316406%,71.095276%,65.847778%);fill-opacity:1;" d="M 70.457031 6.941406 C 63.027344 6.960938 57.421875 13.105469 57.421875 21.203125 L 57.421875 32.316406 C 57.421875 33.960938 58.761719 35.28125 60.386719 35.28125 C 62.03125 35.28125 63.351562 33.945312 63.351562 32.316406 L 63.351562 21.203125 C 63.351562 16.320312 66.28125 12.886719 70.457031 12.886719 C 74.648438 12.90625 77.578125 16.320312 77.578125 21.203125 L 77.578125 32.316406 C 77.578125 33.960938 78.894531 35.28125 80.539062 35.28125 C 82.183594 35.28125 83.503906 33.945312 83.503906 32.316406 L 83.503906 21.203125 C 83.503906 13.085938 77.902344 6.960938 70.457031 6.941406 "/>
<path style=" stroke:none;fill-rule:nonzero;fill:rgb(24.316406%,71.095276%,65.847778%);fill-opacity:1;" d="M 55.308594 7.066406 C 53.84375 6.34375 52.054688 6.941406 51.332031 8.40625 L 43.578125 24.113281 L 35.804688 8.40625 C 35.082031 6.941406 33.292969 6.34375 31.828125 7.066406 C 30.363281 7.789062 29.75 9.578125 30.492188 11.042969 L 40.269531 30.816406 L 36.113281 39.238281 C 35.390625 40.703125 35.988281 42.492188 37.46875 43.21875 C 37.882812 43.414062 38.335938 43.523438 38.769531 43.523438 C 39.855469 43.523438 40.921875 42.910156 41.425781 41.859375 L 56.644531 11.042969 C 57.367188 9.578125 56.773438 7.808594 55.308594 7.066406 "/>
<path style=" stroke:none;fill-rule:nonzero;fill:rgb(24.316406%,71.095276%,65.847778%);fill-opacity:1;" d="M 10.683594 13.503906 C 9.054688 13.503906 7.71875 14.820312 7.71875 16.464844 C 7.71875 18.109375 9.039062 19.429688 10.683594 19.429688 C 12.308594 19.429688 13.648438 18.109375 13.648438 16.464844 C 13.648438 14.820312 12.308594 13.503906 10.683594 13.503906 "/>
<path style=" stroke:none;fill-rule:nonzero;fill:rgb(24.316406%,71.095276%,65.847778%);fill-opacity:1;" d="M 15.148438 0.0898438 C 14.910156 0.0898438 14.660156 0.0742188 14.421875 0.0546875 C 14.007812 0.0351562 13.539062 0 13.03125 0 C 5.222656 0 0.414062 4.863281 0.0195312 13.066406 C 0 13.195312 0 13.339844 0 13.464844 L 0 32.210938 C 0 33.855469 1.320312 35.171875 2.964844 35.171875 C 4.609375 35.171875 5.929688 33.855469 5.929688 32.210938 L 5.929688 14.207031 C 5.929688 6.796875 9.996094 5.945312 13.03125 5.945312 C 13.355469 5.945312 13.699219 5.964844 14.082031 5.984375 C 14.386719 6 14.675781 6.019531 14.984375 6.035156 C 16.628906 6.089844 17.984375 4.789062 18.039062 3.164062 C 18.074219 1.5 16.792969 0.144531 15.148438 0.0898438 "/>
<path style=" stroke:none;fill-rule:nonzero;fill:rgb(24.316406%,71.095276%,65.847778%);fill-opacity:1;" d="M 23.914062 0.164062 C 22.269531 0.164062 20.949219 1.480469 20.949219 3.128906 L 20.949219 32.210938 C 20.949219 33.855469 22.269531 35.171875 23.914062 35.171875 C 25.558594 35.171875 26.878906 33.855469 26.878906 32.210938 L 26.878906 3.128906 C 26.878906 1.5 25.539062 0.164062 23.914062 0.164062 "/>
<path style=" stroke:none;fill-rule:nonzero;fill:rgb(24.316406%,71.095276%,65.847778%);fill-opacity:1;" d="M 100.007812 6.941406 C 92.289062 6.960938 86.453125 12.960938 86.304688 20.914062 C 86.304688 20.949219 86.304688 21.003906 86.304688 21.039062 L 86.304688 21.203125 C 86.304688 21.238281 86.304688 21.292969 86.304688 21.328125 C 86.453125 29.316406 92.289062 35.300781 100.007812 35.300781 C 101.183594 35.300781 102.230469 35.210938 102.734375 35.101562 C 104.34375 34.792969 105.410156 33.238281 105.105469 31.632812 C 104.796875 30.023438 103.242188 28.972656 101.652344 29.28125 C 101.523438 29.300781 100.910156 29.371094 100.007812 29.371094 C 95.453125 29.371094 92.253906 25.992188 92.21875 21.128906 C 92.253906 16.285156 95.453125 12.90625 99.988281 12.886719 C 104.578125 12.90625 107.777344 16.320312 107.777344 21.203125 L 107.777344 32.316406 C 107.777344 33.960938 109.097656 35.28125 110.742188 35.28125 C 112.386719 35.28125 113.707031 33.960938 113.707031 32.316406 L 113.707031 21.203125 C 113.742188 13.085938 107.851562 6.960938 100.007812 6.941406 "/>
<path style=" stroke:none;fill-rule:nonzero;fill:rgb(24.316406%,71.095276%,65.847778%);fill-opacity:1;" d="M 108.015625 47.554688 C 108.015625 47.03125 107.597656 46.613281 107.074219 46.613281 C 106.550781 46.613281 106.132812 47.03125 106.132812 47.554688 L 106.132812 56.011719 L 102.519531 56.011719 C 101.632812 56.011719 98.941406 56.011719 98.941406 51.910156 L 98.941406 47.554688 C 98.941406 47.03125 98.523438 46.613281 98 46.613281 C 97.476562 46.613281 97.058594 47.03125 97.058594 47.554688 L 97.058594 51.910156 C 97.058594 55.722656 99.046875 57.894531 102.519531 57.894531 L 107.09375 57.894531 C 107.597656 57.894531 108.015625 57.476562 108.015625 56.953125 L 108.015625 56.898438 C 108.015625 56.863281 108.015625 56.828125 108.015625 56.789062 L 108.015625 47.554688 "/>
<path style=" stroke:none;fill-rule:nonzero;fill:rgb(24.316406%,71.095276%,65.847778%);fill-opacity:1;" d="M 111.464844 53.933594 L 111.464844 43.21875 C 111.464844 42.691406 111.050781 42.277344 110.527344 42.277344 C 110.003906 42.277344 109.585938 42.691406 109.585938 43.21875 L 109.585938 53.933594 C 109.585938 54.457031 110.003906 54.894531 110.527344 54.894531 C 111.050781 54.875 111.464844 54.457031 111.464844 53.933594 "/>
<path style=" stroke:none;fill-rule:nonzero;fill:rgb(24.316406%,71.095276%,65.847778%);fill-opacity:1;" d="M 102.882812 44.046875 C 103.132812 44.046875 103.367188 43.957031 103.550781 43.777344 C 103.730469 43.597656 103.820312 43.359375 103.820312 43.109375 C 103.820312 42.855469 103.730469 42.621094 103.550781 42.441406 C 103.367188 42.257812 103.132812 42.167969 102.882812 42.167969 C 102.628906 42.167969 102.394531 42.257812 102.210938 42.441406 C 102.03125 42.621094 101.941406 42.855469 101.941406 43.109375 C 101.941406 43.359375 102.050781 43.597656 102.210938 43.777344 C 102.375 43.957031 102.628906 44.046875 102.882812 44.046875 "/>
<path style=" stroke:none;fill-rule:nonzero;fill:rgb(24.316406%,71.095276%,65.847778%);fill-opacity:1;" d="M 91.855469 46.613281 C 91.332031 46.613281 90.914062 47.03125 90.914062 47.554688 L 90.914062 52.957031 L 87.535156 52.957031 C 86.648438 52.957031 83.9375 52.957031 83.9375 48.855469 L 83.9375 43.179688 C 83.9375 42.65625 83.523438 42.242188 83 42.242188 C 82.472656 42.242188 82.058594 42.65625 82.058594 43.179688 L 82.058594 48.855469 C 82.058594 52.667969 84.046875 54.839844 87.535156 54.839844 L 91.621094 54.839844 C 91.65625 54.839844 91.675781 54.839844 91.710938 54.839844 L 91.746094 54.839844 C 91.78125 54.839844 91.800781 54.839844 91.835938 54.839844 C 92.359375 54.839844 92.777344 54.421875 92.777344 53.898438 L 92.777344 47.535156 C 92.796875 47.03125 92.378906 46.613281 91.855469 46.613281 "/>
<path style=" stroke:none;fill-rule:nonzero;fill:rgb(24.316406%,71.095276%,65.847778%);fill-opacity:1;" d="M 91.800781 44.046875 C 92.054688 44.046875 92.289062 43.957031 92.46875 43.777344 C 92.652344 43.597656 92.742188 43.359375 92.742188 43.109375 C 92.742188 42.855469 92.632812 42.621094 92.46875 42.441406 C 92.289062 42.257812 92.054688 42.167969 91.800781 42.167969 C 91.546875 42.167969 91.3125 42.257812 91.132812 42.441406 C 90.953125 42.621094 90.859375 42.855469 90.859375 43.109375 C 90.859375 43.359375 90.96875 43.597656 91.132812 43.777344 C 91.3125 43.957031 91.546875 44.046875 91.800781 44.046875 "/>
<path style=" stroke:none;fill-rule:nonzero;fill:rgb(24.316406%,71.095276%,65.847778%);fill-opacity:1;" d="M 79.183594 46.613281 C 78.660156 46.613281 78.246094 47.03125 78.246094 47.554688 L 78.246094 50.734375 C 78.246094 50.824219 78.226562 52.976562 76.546875 52.976562 L 73.691406 52.976562 L 73.796875 52.722656 C 74.070312 52.109375 74.214844 51.386719 74.214844 50.734375 L 74.214844 47.554688 C 74.214844 47.03125 73.796875 46.613281 73.273438 46.613281 C 72.75 46.613281 72.335938 47.03125 72.335938 47.554688 L 72.335938 50.734375 C 72.335938 50.824219 72.316406 52.976562 70.636719 52.976562 L 68.339844 52.976562 L 68.339844 47.535156 C 68.339844 47.011719 67.925781 46.597656 67.402344 46.597656 C 66.875 46.597656 66.460938 47.011719 66.460938 47.535156 L 66.460938 55.996094 L 62.917969 55.996094 C 62.03125 55.996094 59.320312 55.996094 59.320312 51.894531 L 59.320312 47.535156 C 59.320312 47.011719 58.90625 46.597656 58.382812 46.597656 C 57.855469 46.597656 57.441406 47.011719 57.441406 47.535156 L 57.441406 51.894531 C 57.441406 55.707031 59.429688 57.875 62.917969 57.875 L 67.273438 57.875 C 67.292969 57.875 67.308594 57.875 67.328125 57.875 C 67.347656 57.875 67.363281 57.875 67.382812 57.875 C 67.90625 57.875 68.324219 57.460938 68.324219 56.933594 L 68.324219 54.855469 L 76.671875 54.855469 C 76.710938 54.855469 76.746094 54.855469 76.78125 54.855469 C 79.222656 54.695312 80.105469 52.308594 80.105469 50.734375 L 80.105469 47.554688 C 80.125 47.03125 79.691406 46.613281 79.183594 46.613281 "/>
<path style=" stroke:none;fill-rule:nonzero;fill:rgb(24.316406%,71.095276%,65.847778%);fill-opacity:1;" d="M 120.035156 56.449219 C 119.78125 56.449219 119.546875 56.554688 119.363281 56.71875 C 119.183594 56.898438 119.074219 57.132812 119.074219 57.386719 C 119.074219 57.621094 119.183594 57.875 119.363281 58.054688 C 119.546875 58.238281 119.78125 58.328125 120.035156 58.328125 C 120.269531 58.328125 120.519531 58.21875 120.703125 58.054688 C 120.882812 57.875 120.972656 57.640625 120.972656 57.386719 C 120.972656 57.132812 120.882812 56.898438 120.703125 56.71875 C 120.519531 56.554688 120.285156 56.449219 120.035156 56.449219 "/>
<path style=" stroke:none;fill-rule:nonzero;fill:rgb(24.316406%,71.095276%,65.847778%);fill-opacity:1;" d="M 117.285156 56.449219 C 117.050781 56.449219 116.796875 56.554688 116.617188 56.71875 C 116.4375 56.898438 116.347656 57.132812 116.347656 57.386719 C 116.347656 57.621094 116.453125 57.875 116.617188 58.054688 C 116.796875 58.21875 117.03125 58.328125 117.285156 58.328125 C 117.519531 58.328125 117.773438 58.21875 117.953125 58.054688 C 118.136719 57.875 118.226562 57.640625 118.226562 57.386719 C 118.226562 57.132812 118.136719 56.898438 117.953125 56.71875 C 117.773438 56.554688 117.539062 56.449219 117.285156 56.449219 "/>
<path style=" stroke:none;fill-rule:nonzero;fill:rgb(24.316406%,71.095276%,65.847778%);fill-opacity:1;" d="M 132.269531 45.007812 C 130.117188 44.933594 128.132812 45.585938 126.722656 46.832031 L 126.648438 46.902344 C 126.523438 47.011719 126.378906 47.140625 126.25 47.265625 L 125.945312 47.554688 L 125.945312 43.234375 C 125.945312 42.710938 125.527344 42.292969 125.003906 42.292969 C 124.480469 42.292969 124.0625 42.710938 124.0625 43.234375 L 124.0625 50.84375 C 124.0625 50.863281 124.0625 50.878906 124.0625 50.898438 C 124.0625 50.933594 124.0625 50.953125 124.0625 50.953125 C 124.0625 51.207031 124.171875 51.441406 124.355469 51.621094 C 124.535156 51.800781 124.769531 51.894531 125.023438 51.894531 C 125.273438 51.894531 125.511719 51.785156 125.691406 51.621094 C 125.78125 51.511719 125.871094 51.386719 125.90625 51.222656 L 125.960938 51.023438 C 126.070312 50.679688 126.144531 50.535156 126.269531 50.300781 C 126.449219 49.957031 126.703125 49.597656 127.046875 49.179688 C 127.265625 48.890625 127.589844 48.621094 127.894531 48.347656 L 127.96875 48.277344 C 129.015625 47.355469 130.535156 46.867188 132.199219 46.921875 C 134.945312 47.03125 135.488281 48.132812 135.488281 49.90625 L 135.488281 53.011719 L 119.925781 53.011719 L 120.035156 52.761719 C 120.304688 52.128906 120.449219 51.421875 120.449219 50.773438 L 120.449219 47.519531 C 120.449219 46.992188 120.035156 46.578125 119.507812 46.578125 C 118.984375 46.578125 118.570312 46.992188 118.570312 47.519531 L 118.570312 50.734375 C 118.570312 50.824219 118.550781 52.976562 116.871094 52.976562 L 114.953125 52.976562 L 114.953125 47.519531 C 114.953125 46.992188 114.539062 46.578125 114.015625 46.578125 C 113.507812 46.578125 113.074219 46.992188 113.074219 47.519531 L 113.074219 54.023438 C 113.074219 55.777344 111.609375 56.933594 110.941406 57.1875 C 110.453125 57.367188 110.21875 57.910156 110.398438 58.398438 C 110.582031 58.871094 111.140625 59.121094 111.609375 58.941406 C 112.875 58.472656 114.429688 57.023438 114.847656 55.019531 L 114.882812 54.875 L 136.445312 54.875 C 136.96875 54.875 137.386719 54.441406 137.386719 53.917969 L 137.386719 49.867188 C 137.402344 46.757812 135.6875 45.132812 132.269531 45.007812 "/>
</g>
</svg>

<svg xmlns="http://www.w3.org/2000/svg" width="184.187" height="59pt" viewBox="0 0 138.14 59"><defs><clipPath id="a"><path d="M116 6h22.14v30H116Zm0 0"/></clipPath></defs><g clip-path="url(#a)"><path d="M138.145 26.73v.075c0 5.277-3.887 8.55-10.141 8.55-3.723 0-7.43-1.175-10.41-3.328-.688-.488-1.102-1.336-1.102-2.222 0-1.535 1.211-2.73 2.766-2.73.633 0 1.172.183 1.699.542 2.313 1.7 4.66 2.531 7.191 2.531 2.586 0 4.122-1.011 4.122-2.73v-.07c0-1.72-1.23-2.496-5.692-3.633-5.187-1.32-9.164-2.785-9.164-8.422v-.074c0-4.899 3.977-8.297 9.668-8.297 3.273 0 6.219.832 8.805 2.46a2.7 2.7 0 0 1 1.3 2.348c0 1.536-1.21 2.73-2.765 2.73-.543 0-.996-.128-1.5-.433-2.152-1.265-4.086-1.879-5.91-1.879-2.242 0-3.688.993-3.688 2.528v.074c0 1.934 1.301 2.531 6.09 3.758 5.223 1.32 8.73 3.254 8.73 8.222" style="stroke:none;fill-rule:nonzero;fill:#3eb5a8;fill-opacity:1"/></g><path d="M70.457 6.941c-7.43.02-13.035 6.164-13.035 14.262v11.113a2.966 2.966 0 0 0 5.93 0V21.203c0-4.883 2.93-8.316 7.105-8.316 4.191.02 7.121 3.433 7.121 8.316v11.113a2.95 2.95 0 0 0 2.961 2.965 2.966 2.966 0 0 0 2.965-2.965V21.203c0-8.117-5.602-14.242-13.047-14.262M55.309 7.066a2.974 2.974 0 0 0-3.977 1.34l-7.754 15.707-7.773-15.707a2.974 2.974 0 0 0-3.977-1.34c-1.465.723-2.078 2.512-1.336 3.977l9.778 19.773-4.157 8.422a2.97 2.97 0 0 0 1.356 3.98c.414.196.867.305 1.3.305a2.96 2.96 0 0 0 2.657-1.664l15.219-30.816a2.98 2.98 0 0 0-1.336-3.977M10.684 13.504a2.96 2.96 0 0 0-2.965 2.96 2.956 2.956 0 0 0 2.965 2.966 2.97 2.97 0 0 0 2.964-2.965c0-1.645-1.34-2.961-2.964-2.961" style="stroke:none;fill-rule:nonzero;fill:#3eb5a8;fill-opacity:1"/><path d="M15.148.09c-.238 0-.488-.016-.726-.035-.414-.02-.883-.055-1.39-.055C5.221 0 .413 4.863.02 13.066c-.02.13-.02.274-.02.399V32.21c0 1.644 1.32 2.96 2.965 2.96a2.95 2.95 0 0 0 2.965-2.96V14.207c0-7.41 4.066-8.262 7.101-8.262.324 0 .668.02 1.051.04.305.015.594.035.902.05 1.645.055 3-1.246 3.055-2.87A2.99 2.99 0 0 0 15.15.09M23.914.164A2.953 2.953 0 0 0 20.95 3.13V32.21c0 1.644 1.32 2.96 2.965 2.96a2.95 2.95 0 0 0 2.965-2.96V3.129A2.98 2.98 0 0 0 23.914.164M100.008 6.941c-7.719.02-13.555 6.02-13.703 13.973v.41400000000000003c.148 7.988 5.984 13.973 13.703 13.973 1.176 0 2.222-.09 2.726-.2 1.61-.308 2.676-1.863 2.371-3.468a2.955 2.955 0 0 0-3.453-2.352c-.129.02-.742.09-1.644.09-4.555 0-7.754-3.379-7.79-8.242.036-4.844 3.235-8.223 7.77-8.242 4.59.02 7.79 3.433 7.79 8.316v11.113a2.956 2.956 0 0 0 2.964 2.965 2.956 2.956 0 0 0 2.965-2.965V21.203c.035-8.117-5.855-14.242-13.7-14.262M108.016 47.555a.937.937 0 0 0-.942-.942.937.937 0 0 0-.941.942v8.457h-3.613c-.887 0-3.579 0-3.579-4.102v-4.355a.937.937 0 0 0-.941-.942.937.937 0 0 0-.941.942v4.355c0 3.813 1.988 5.985 5.46 5.985h4.575a.933.933 0 0 0 .922-.942v-9.398M111.465 53.934V43.219a.93.93 0 0 0-.938-.942.934.934 0 0 0-.941.942v10.715c0 .523.418.96.941.96a.963.963 0 0 0 .938-.96M102.883 44.047a.94.94 0 0 0 .668-.27c.18-.18.27-.418.27-.668a.926.926 0 0 0-.938-.941.93.93 0 0 0-.942.941c0 .25.11.489.27.668.164.18.418.27.672.27M91.855 46.613a.937.937 0 0 0-.94.942v5.402h-3.38c-.887 0-3.597 0-3.597-4.102V43.18a.93.93 0 0 0-.938-.938.93.93 0 0 0-.941.938v5.675c0 3.813 1.988 5.985 5.476 5.985h4.301a.937.937 0 0 0 .941-.942v-6.363c.02-.504-.398-.922-.922-.922M91.8 44.047a.926.926 0 0 0 .942-.938 1 1 0 0 0-.273-.668.91.91 0 0 0-.668-.273.91.91 0 0 0-.668.273.93.93 0 0 0-.274.668c0 .25.11.489.274.668.18.18.414.27.668.27M79.184 46.613a.934.934 0 0 0-.938.942v3.18c0 .09-.02 2.242-1.7 2.242h-2.855l.106-.254a5 5 0 0 0 .418-1.989v-3.18a.937.937 0 0 0-.942-.94.934.934 0 0 0-.937.94v3.18c0 .09-.02 2.243-1.7 2.243H68.34v-5.442a.93.93 0 0 0-.938-.937.93.93 0 0 0-.941.937v8.461h-3.543c-.887 0-3.598 0-3.598-4.101v-4.36a.93.93 0 0 0-.937-.937.93.93 0 0 0-.942.937v4.36c0 3.812 1.989 5.98 5.477 5.98h4.465a.934.934 0 0 0 .941-.941v-2.079h8.458c2.44-.16 3.323-2.546 3.323-4.12v-3.18a.92.92 0 0 0-.921-.942M120.035 56.45c-.254 0-.488.105-.672.269a.95.95 0 0 0-.289.668c0 .234.11.488.29.668a.93.93 0 0 0 .671.273c.235 0 .485-.11.668-.273.18-.18.27-.414.27-.668a.93.93 0 0 0-.27-.668 1 1 0 0 0-.668-.27M117.285 56.45c-.234 0-.488.105-.668.269a.93.93 0 0 0-.27.668c0 .234.106.488.27.668.18.164.414.273.668.273.235 0 .488-.11.668-.273a.91.91 0 0 0 .274-.668.91.91 0 0 0-.274-.668 1 1 0 0 0-.668-.27" style="stroke:none;fill-rule:nonzero;fill:#3eb5a8;fill-opacity:1"/><path d="M132.27 45.008c-2.153-.074-4.137.578-5.547 1.824l-.075.07c-.125.11-.27.239-.398.364l-.305.289v-4.32a.937.937 0 0 0-.941-.942.937.937 0 0 0-.942.941v7.719c0 .254.11.488.293.668a.93.93 0 0 0 .668.274c.25 0 .489-.11.668-.274.09-.11.18-.234.215-.398l.055-.2c.11-.343.184-.488.309-.722.18-.344.433-.703.777-1.121.219-.29.543-.559.848-.832l.074-.07c1.047-.923 2.566-1.41 4.23-1.356 2.746.11 3.29 1.21 3.29 2.984v3.106h-15.563l.11-.25c.269-.633.413-1.34.413-1.989V47.52a.93.93 0 0 0-.941-.942.93.93 0 0 0-.938.942v3.214c0 .09-.02 2.243-1.699 2.243h-1.918V47.52a.93.93 0 0 0-.937-.942.944.944 0 0 0-.942.942v6.503c0 1.754-1.465 2.91-2.133 3.164a.936.936 0 0 0-.543 1.211.96.96 0 0 0 1.211.543c1.266-.468 2.82-1.918 3.239-3.921l.035-.145h21.562a.95.95 0 0 0 .942-.957v-4.05c.015-3.11-1.7-4.735-5.117-4.86" style="stroke:none;fill-rule:nonzero;fill:#3eb5a8;fill-opacity:1"/></svg>
